src/assets/images/nav/home.svg

<svg xmlns="http://www.w3.org/2000/svg" width="24" height="24" viewBox="0 0 24 24"><path d="M21 13v10h-6v-6h-6v6h-6v-10h-3l12-12 12 12h-3zm-1-5.907v-5.093h-3v2.093l3 3z"/></svg>

<svg width="24" height="24" viewBox="0 0 24 24" fill="none" xmlns="http://www.w3.org/2000/svg">
<path d="M21 13V23H15V17H9V23H3V13H0L12 1L24 13H21ZM20 7.093V2H17V4.093L20 7.093Z" fill="white"/>
</svg>
